X: 30753
T: Orotaba
R: waltz
M: 3/4
K: Gmajor
dc|B2D2D2|G4AB|A2E2E2|A4G2|F2A2c2|f4ef|e2d2d2|d4dc|
B2D2D2|G4AB|A2E2E2|A4de|f2e2d2|cF3A2|G3 A GF|G4BA|
G2B2c2|d2g3g|f2A2B2|c4fg|f2A2B2|c4ef|e2d2d2|d4BA|
G2B2c2|d2g3g|f2A2B2|c4de|f2e2d2|cF3A2|G3 A GF|G4:|

